X:1
L:1/16
M:4/4
K:C
 B2E2A2 |[M:2/4][K:G]SOSOO .!fermata!PMTuC2O(MGE) | D2G2 B2G2 | A2E2 E2G2 | D2G2 BAGA | 
 B2d2 d2>d2 | efge d2g2 | cBAG A2B2 | D2G2 BAGA | B2G2 G :: (Bc) | d2B2 g2(Bc) | dcBA G2(Bc) | 
 d2B2 g2(fg) | agfe d2>d2 | efge d2g2 | cBAG A2B2 | D2G2 BAGA | B2G2 G :|
